X:1
T:Un forgeron
T:Jean Maillard
T:Source : Livre II de 26 chansons nouvelles à 4 parties---Paris---N.du Chemin---1549. Editor : André Vierendeels (15/02/18) Notes : Original clefs : G2, C2, C3, F3 Original note values have been halved Editorial accidentals above the stave Dotted brackets indicate black notes 
T:Un forgeron
T:©
T:©
T:©
T:©
C:Jean Maillard
Z:©
%%score [ 1 2 3 4 ]
L:1/8
Q:1/4=120
M:2/2
K:C
V:1 treble nm="Soprano" snm="S"
V:2 treble nm="Alto" snm="A"
V:3 treble-8 nm="Tenor" snm="T"
V:4 bass nm="Bass" snm="B"
V:1
 z2 G2 GG c2- | c2 B2 c3 c | A2 B2 c4 | c4 A2 A2 | d3 c B3 A | B2 A4 G2- |[M:2/4]"^#" G2 F2 |1 %7
w: Un for- ge- ron|_ aus- si vieulx|que le temps,|pri- oit d'a-|mours un iour sa|da- moy- sel-||
w: Et luy di- soit|_ ma da- me|ie pre- tendz|for- ger sur|vous u- ne pie-|ce tres bel-||
 G4 :|2[M:2/2] G2 G2 B2 B2 || c4 z2 G2 | AGAB c4 | B4 A4 | A2 A2 G4- | G4 e4 | e2 d2 e3 d | %15
w: le,|le, el- le res-|pond qui|point ne fut re- bel-|le, que|de sa part|_ son|de- voir vou- loit|
w: (le)||||||||
 c2 d4 c2- | c2 B2 c4- | c4 c4 | B2 B2 G2 G2 | c2 B2 A2 c2 | B2 GG AABG | AA B2 G2 c2- | %22
w: fai- * *|* * re,|_ lors|en for- geant ses|mar- taulx vont def-|fai- re, et son con- gnet, et|son con- gnet se ploy-|
w: |||||||
 c2 B2 c2 c2 | BcdB c2 B2 |[M:2/4] A4 |[M:2/2] G8 |: e4 d2 c2 | B2 A2 c2 c2 | B2 B2 A4 | G8 | %30
w: * a com- me'u-|ne- * * * plu- *||me,|puis el- le'a|dit pour cest oeu-|vre par- fai-|re,|
w: ||||||||
 g2 gg e2 c2 | cc A2 A2 d2- | dc BA G2 A2 | A2 G4 F2 | G8 :| %35
w: aul tre que vous, au-|tre que vous fault que|_ _ _ _ bat- te|l'en clu- *|me.|
w: |||||
V:2
 D2 DD E2 E2 | G6 G2 | C2 G2 E4 | E4 F4 | F4 G3 F | G2 E2 F2 D2 |[M:2/4] D4 |1 D4 :|2 %8
w: Un for- ge- ron aus-|si vieulx|que le temps,|pri- oit|d'a- mours un|iour sa da- moy-|sel-|le|
w: Et luy di- soit ma|da- me|ie pre- tendz|for- ger|sur vous u-|ne pie- ce tres|bel-|(le)|
[M:2/2] D2 B,2 D2 D2 || E3 E DCDE | F2 FF EDEF | G3 G D2 F2 | F2 CC E2 E2 | D4 G4- | G4 G4- | %15
w: le, el- le res-|pond qui point ne fut re-|bel- le, qui point ne fut re-|bel- le, que de|sa part, que de sa|part son|_ de-|
w: |||||||
 G2 D2 G2 F2 | G4 E2 F2 | A2 A2 G2 E2 | G3 F ED E2- | EF G4 F2 | G2 z D FEGD | F2 G2 E2 G2 | %22
w: * voir vou- loit|fai- re, lors|en for- geant ses|mar- * * * taulx|_ vont def- fai-|re, et son con- gnet, et|son con- gnet se|
w: |||||||
 A2 G2 G4- | G2 A4 G2- |[M:2/4] G2 F2 |[M:2/2] G8 |: G4 G4 | G2 C2 z2 C2 | G2 G2 F2 F2 | E4 D2 G2 | %30
w: ploy- a com-|* me'u- ne|_ plu-|me,|puis e-|le'a dit pour|cest oeu- vre par-|fai- re, aul-|
w: ||||||||
 GG E2 z EGE | EE F2 z2 F2 | FFDD E2 F2 | D2 C2 D4 |"^#" D8 :| %35
w: tre que vous, aul- tre que|vous, que vous, aul-|tre que vous fault que bat-|te l'en- clu-|me.|
w: |||||
V:3
 G2 GG c4 | d4 e3 e | f2 d2 c4 | z2 c4 A2 | A2 d3 G d2- | d2 c2 d2 B2 |[M:2/4] A4 |1 G4 :|2 %8
w: Un for- ge- ron|aus- si vieulx|que le temps,|pri- oit|d'a- mours un iour|_ sa da- moy|sel-|le,|
w: Et luy di- soit|ma da- me|ie pre- tendz|for- ger|sur vous u- ne|_ pie- ce tres|bel-|(le)|
[M:2/2] G8 || z2 G2 B2 B2 | c4 z2 c2 | dcde f2 d2 | z2 A2 c2 c2 | G4 z2 c2 | c2 B2 c3 d | %15
w: le,|el- le res-|pond qui|point ne fut re- bel- le,|que de sa|part son|de- voir vou- *|
w: |||||||
 e2 f2 e2 dc | d4 c4 | f4 e2 e2 | d4 z4 | z2 G2 cBcd | e2 d2 z cdB | ccdB c2 e2 | f2 d2 e4 | %23
w: * loit _ _ _|fai- re,|lors en for-|geant,|ses mar- teulx von def-|fai- re, et son con-|gnet, et son con- gnet se|ploy- a com-|
w: ||||||||
 d2 f3 e dc |[M:2/4] d4 |[M:2/2] d8 |: c4 B2 e2 | dd f2 f2 e2 | e2 d3 c d2 | B2 c4 B2 | %30
w: me'u- ne _ _ _|plu-|me,|puis el- le'a|dit pour _ cest oeu-|vre par- * *|fai- * *|
w: |||||||
 c2 g2 gg e2 | c2 cc A2 A2 | d3 c B2 c2 | B2 AG A4 | G8 :| %35
w: re, aul tre que vous,|aul- tre que vous fault|que bat- te l'en-|clu- * * *|me.|
w: |||||
V:4
 z8 | G,2 G,G, CC,C,C, | F,2 G,2 C,2 C2 | A,2 A,2 F,2 F,2 | D,2 D,2 G,3 D, | G,2 A,2 F,2 G,2 | %6
w: |Un for- ge- ron aus- si vieulx|que le temps, pri-|oit d'a- mours, pri-|oit d'a- mours un|iour sa da- moy|
w: |Et luy di- soit ma da- me|ie pre- tendz for-|ger sur vous, for-|ger sur vous u-|ne pie- ce tres|
[M:2/4] D,4 |1 G,4 :|2[M:2/2] G,4 z2 G,2 || C,2 C,2 G,3 G, | F,E,F,G, A,4 | G,4 z2 D,2 | %12
w: sel-|le,|le, el-|le res- pond qui|point ne fut re- bel-|le, que|
w: bel-|(le)|||||
 F,2 F,2 C,2 C2 | C2 B,2 C2 C,2 | G,4 C,2 C2 | C2 B,2 C2 A,2 | G,4 C,2 F,2 | F,G,A,B, C2 C2 | %18
w: de sa part son|de- voir vou- loit|fai- re, son|de- voir vou- loit|fai- re, lors|en _ _ _ _ for-|
w: ||||||
 G,2 G,2 C3 B, | A,2 G,2 A,4 | G,2 G,2 F,A,G,G, | F,A, G,2 z2 C,2 | F,2 G,2 C,D,E,F, | %23
w: geant ses mar- reaulx|vont def- fai-|re, et son con- gnet, et|son con- gnet, se|ploy- a com- * * *|
w: |||||
 G,2 D,2 F,2 G,2 |[M:2/4] D,4 |[M:2/2] G,8 |: C,4 G,2 C,2 | G,2 F,2 A,2 A,2 | G,3 F, D,2 D,2 | %29
w: * me'u- * ne|plu-|me,|puis el- le'a|dit: pour cest oeu-|vre _ _ par-|
w: ||||||
 E,2 C,2 G,4 | C,4 C2 CC | A,2 F,2 F,F, D,2 | D,2 G,4 F,2 | G,2 E,2 D,4 | G,8 :| %35
w: fai- * *|re, aul- tre que|vous, aul- tre que vous|fault que bat-|te l'en- clu-|me.|
w: ||||||

